X: 28
T:Tappelupolkka (Fighting Polka)
M:4/4
L:1/8
C:Trad.  Finnish
S:Martti Pokela/Eeva-Leena Sariola/Matti Kontio
R:Polka
Z:Andy Alexis
K:C
E2|:A6e2|B6c2|d6e2|c2A4E2|A6e2|B6c2|d6e2|1A6E2:|2A8||!
:ABcd edcB|AcBG AGAG|E2EBe4|z2A2A4|!ABcd edcB|AcBG AGAG|E2EBe4|A2A2A4:||
